X:522
T:
N:
S:Uppt. efter hemmansägaren Gardell, Enges i Burs.
R:vals
O:Gotland, Burs
M:3/4
L:1/8
K:F
AB|c2 ccde|f2 ABcd|c2 EGdc|c2 A2 AB|c2 ccde|f2 ABcd|c2 EGdE|F4::EF|
G2 GABc|B2 A2 AB|c2 cABA|G4 EF|G2 GABc|B2 A2 AB|c2 cfe=B|c4 AB|
c2 ccde|f2 ABdc|c2 EGdc|c2 A2 AB|c2 ccde|f2 ABdc|c2 EGcE|F4:|
K:Bb
|Bc|d2 dBcA|B4 AG|FGAGAB|c2 B2 Bc|d2 dBcA|B4 AG|FGABcA|B4:|

